X:1
T:Fair Fanny Moore
M:4/4
L:1/4
K:G
 G| G B B B| c d2 c| B G G F| G3 G| G c c c| c- d2 d| e3/2 c/2 e e|\
 d3 B| d d d d| a g2 d| g g B d| c3 d| e e d B| e d2 B| A2 G F| G3||\
